dist/img/svg/Vector.svg

<svg width="13" height="11" fill="none" xmlns="http://www.w3.org/2000/svg"><path d="M.15 6A.54.54 0 010 5.65c0-.1.05-.25.15-.35l.7-.7c.2-.2.5-.2.7 0l.05.05L4.35 7.6c.1.1.25.1.35 0L11.4.65h.05c.2-.2.5-.2.7 0l.7.7c.2.2.2.5 0 .7l-8 8.3c-.1.1-.2.15-.35.15-.15 0-.25-.05-.35-.15l-3.9-4.2L.15 6z" fill="#F69C8F"/></svg>

<svg width="13" height="11" viewBox="0 0 13 11" fill="none" xmlns="http://www.w3.org/2000/svg">
<path d="M0.15 6C0.05 5.9 0 5.75 0 5.65C0 5.55 0.05 5.4 0.15 5.3L0.85 4.6C1.05 4.4 1.35 4.4 1.55 4.6L1.6 4.65L4.35 7.6C4.45 7.7 4.6 7.7 4.7 7.6L11.4 0.65H11.45C11.65 0.45 11.95 0.45 12.15 0.65L12.85 1.35C13.05 1.55 13.05 1.85 12.85 2.05L4.85 10.35C4.75 10.45 4.65 10.5 4.5 10.5C4.35 10.5 4.25 10.45 4.15 10.35L0.25 6.15L0.15 6Z" fill="#F69C8F"/>
</svg>
